packages/kaspersky-hexa-ui-icons/src/iconsSVGs/16x12/FlagBf.svg

<svg width="16" height="12" viewBox="0 0 16 12" fill="none" xmlns="http://www.w3.org/2000/svg">
<g clip-path="url(#clip0_41812_2765)">
<mask id="mask0_41812_2765" style="mask-type:luminance" maskUnits="userSpaceOnUse" x="0" y="0" width="16" height="12">
<rect width="16" height="12" rx="2" fill="white"/>
</mask>
<g mask="url(#mask0_41812_2765)">
<path fill-rule="evenodd" clip-rule="evenodd" d="M0 12H16V6.40002H0V12Z" fill="#00B051"/>
<path fill-rule="evenodd" clip-rule="evenodd" d="M0 6.4H16V0H0V6.4Z" fill="#FA494B"/>
<path fill-rule="evenodd" clip-rule="evenodd" d="M8.00001 7.336L6.6565 8.34164L7.15221 6.68924L5.82617 5.65836L7.47604 5.64276L8.00001 4L8.52398 5.64276L10.1739 5.65836L8.84781 6.68924L9.34352 8.34164L8.00001 7.336Z" fill="#FDD216"/>
</g>
</g>
<defs>
<clipPath id="clip0_41812_2765">
<rect width="16" height="12" fill="white"/>
</clipPath>
</defs>
</svg>

<svg xmlns="http://www.w3.org/2000/svg" width="16" height="12" fill="none" viewBox="0 0 16 12"><g clip-path="url(#a)"><mask id="b" width="16" height="12" x="0" y="0" maskUnits="userSpaceOnUse" style="mask-type:luminance"><rect width="16" height="12" fill="#fff" rx="2"/></mask><g fill-rule="evenodd" clip-rule="evenodd" mask="url(#b)"><path fill="#00b051" d="M0 12h16V6.4H0z"/><path fill="#fa494b" d="M0 6.4h16V0H0z"/><path fill="#fdd216" d="M8 7.336 6.6565 8.3416l.4957-1.6524-1.326-1.0308 1.6498-.0156L8 4l.524 1.6428 1.6499.0156-1.326 1.0308.4956 1.6524z"/></g></g><defs><clipPath id="a"><path fill="#fff" d="M0 0h16v12H0z"/></clipPath></defs></svg>
